X: 3
T: Gurteen Cross
R: polka
M: 2/4
L: 1/8
K: Gmaj
GB AB/A/ | Gg e/f/g/e/ | dB AG/A/ | BB/A/ G/F/E/D/ |GB AB/A/ | Gg e/f/g/e/ | dB AG/A/ | BG G3/ :|Bd g>d | Bd g>d | Bd ge | f2 f>g |ag e/f/g/e/ | dB AG/A/ | Be d/B/A/B/ | G2- G3/ :|


Tune 1564	Setting 1564

